X:1
T:Earl of Fife [1], The
T:Earl of Fife [1], The
T:William Marshall
C:William Marshall
L:1/8
M:4/4
K:Bb
V:1 treble 
V:1
 b | f<(d d>)B c>de>g | f>(d d>)f g2 (gb) | f<(d d>)c B>cdB | Gc B/A/G/F/ B2 Bb | %5
 f<(d d>)B c>de>g | f>(d d>)f g2 (gb) | f<(d d>)c B>cdB | Gc B/A/G/F/ B2 Bb || d | %10
 B>F G/F/E/D/ F>GBd | f<d B>d c2 cd/c/ | B>F G/F/E/D/ B>c d<b | f<d c>d B2 Bd/c/ | %14
 B>F G/F/E/D/ F>GB>d | f<dBd c2 (ce) | (3def (3gab (3gfe (3dcB | G>c A/B/c/A/ B2 B || %18

